symbols/web/do_not_disturb_on_total_silence/materialsymbolsoutlined/do_not_disturb_on_total_silence_wght700_40px.svg

<svg xmlns="http://www.w3.org/2000/svg" height="40" width="40"><path d="M20.083 29.583q4 0 6.834-2.833 2.833-2.833 2.833-6.833t-2.833-6.834q-2.834-2.833-6.834-2.833-4 0-6.833 2.833-2.833 2.834-2.833 6.834 0 4 2.833 6.833t6.833 2.833Zm-5.208-7.75V18h10.208v3.833Zm5.125 16q-3.708 0-6.958-1.395-3.25-1.396-5.667-3.813-2.417-2.417-3.813-5.667Q2.167 23.708 2.167 20q0-3.75 1.395-7 1.396-3.25 3.813-5.646 2.417-2.396 5.667-3.812Q16.292 2.125 20 2.125q3.75 0 7 1.417 3.25 1.416 5.646 3.812T36.458 13q1.417 3.25 1.417 7 0 3.708-1.417 6.958-1.416 3.25-3.812 5.667T27 36.438q-3.25 1.395-7 1.395Zm0-4.375q5.625 0 9.542-3.896 3.916-3.895 3.916-9.562 0-5.625-3.916-9.542Q25.625 6.542 20 6.542t-9.542 3.916Q6.542 14.375 6.542 20t3.896 9.542q3.895 3.916 9.562 3.916ZM20 20Z"/></svg>

<svg xmlns="http://www.w3.org/2000/svg" height="40" width="40"><path d="M20.083 29.583Q24.083 29.583 26.917 26.75Q29.75 23.917 29.75 19.917Q29.75 15.917 26.917 13.083Q24.083 10.25 20.083 10.25Q16.083 10.25 13.25 13.083Q10.417 15.917 10.417 19.917Q10.417 23.917 13.25 26.75Q16.083 29.583 20.083 29.583ZM14.875 21.833V18H25.083V21.833ZM20 37.833Q16.292 37.833 13.042 36.438Q9.792 35.042 7.375 32.625Q4.958 30.208 3.562 26.958Q2.167 23.708 2.167 20Q2.167 16.292 3.562 13.042Q4.958 9.792 7.375 7.375Q9.792 4.958 13.042 3.542Q16.292 2.125 20 2.125Q23.708 2.125 26.958 3.542Q30.208 4.958 32.625 7.375Q35.042 9.792 36.458 13.042Q37.875 16.292 37.875 20Q37.875 23.708 36.458 26.958Q35.042 30.208 32.625 32.625Q30.208 35.042 26.958 36.438Q23.708 37.833 20 37.833ZM20 20Q20 20 20 20Q20 20 20 20Q20 20 20 20Q20 20 20 20Q20 20 20 20Q20 20 20 20Q20 20 20 20Q20 20 20 20ZM20 33.458Q25.542 33.458 29.5 29.521Q33.458 25.583 33.458 20Q33.458 14.458 29.5 10.5Q25.542 6.542 20 6.542Q14.417 6.542 10.479 10.5Q6.542 14.458 6.542 20Q6.542 25.583 10.479 29.521Q14.417 33.458 20 33.458Z"/></svg>
